X:1
T:Title
%%score 1 { ( 2 3 ) | 4 }
L:1/8
Q:1/4=120
M:2/4
K:D
V:1 treble nm="MusicXML Part"
V:2 treble nm="MusicXML Part"
V:3 treble 
V:4 bass 
V:1
!p!"^Con moto""^Johannes Brahms""^Gesang" F/E/F/"^Der Mann"G/ A/ z/ F/ z/ | %1
w: 1.Wil- le wil- le will, der|
w: 2.Wil- le wil- le will, der|
w: 3.Wil- le wil- le will, was|
w: 4.Wil- le wil- le will, meim|
 G/ z/ B/ z/"^Nr.5 aus: \"Volks-Kinderlieder\", WoO 31" A/ z/ D/ z/ x4 | F/E/F/G/ A/ z/ F/ z/ | %3
w: Mann ist kom- men|wil- le wil- le will, was|
w: Mann ist kom- men,|wil- le wil- le will, was|
w: soll's noch ge- ben?|wil- le wil- le will, ein|
w: Kind ist ar- tig,|wil- le wil- le will, mein|
 G/ z/ E/ z/ D z |!mf! d/c/d/c/ d/ z/!p! F/ z/ | G/ z/ B/ z/ A/ z/ F/ z/ | %6
w: bracht' er dann?|Wil- le wil- le will, viel|Zuk- ker- waf- feln,|
w: bringt er mehr?|Wil- le wi- le will, gar|hüb- sche Sa- chen,|
w: Rü- te- lein!|Wil- le wil- le will, er|hör- te schrei- ein,|
w: Kind ist still!|Wil- le wi- le will, das|Rüt- lein ge- ben,|
!mf! d/c/d/c/ d/ z/!p! B/ z/ | A/G/F/E/ D z :| %8
w: wil- le wil- le will, die's|Kin- de- lein soll han!|
w: wil- le wil- le will, die|Ta- schen sind ihm schwer!|
w: wil- le wil- le will, ein|schlim- mes Bü- be- lein!|
w: wil- le wil- le will, dem|der es e- ben will!|
V:2
!p!"^Klavier" F/E/F/G/ A/ z/ F/ z/ | G/ z/ B/ z/ [FA]/ z/ D/ z/ x4 | F/E/F/G/ [CA]/ z/ [DF]/ z/ | %3
 [B,G]/ z/ [CE]/ z/ D z |!mf! [Fd]/[Gc]/[Fd]/[Gc]/ [Fd]/ z/ [DF]/ z/ | %5
 [B,G]/ z/ [DB]/ z/ [FA]/ z/ [DF]/ z/ |!mf! [Fd]/[Ec]/[Fd]/[Ec]/ [Fd]/ z/ [GB]/ z/ | %7
 [FA]/[EG]/[DF]/[CE]/ D z :| %8
V:3
 D/C/D/E/ F/ z/ D/ z/ | x8 | x4 | x4 | x4 | x4 | x4 | x4 :| %8
V:4
 z4 | x4 B,/ z/ G,/ z/ D/ z/ D,/ z/ | D/C/D/B,/ A,/ z/ B,/ z/ | G,/ z/ A,/ z/ D, z | %4
 D/E/D/E/ D/ z/!p! D,/ z/ | G,/ z/ G,,/ z/ D,/ z/ D,,/ z/ | %6
 D/A,/D/A,/ D/ z/!p!"^© 2009 by CPDL. \nThis edition can be fully distributed, duplicated, performed, and recorded. \nEdited by Christoph Lahme." G,/ z/ | %7
 A,/ z/ A,,/ z/ [D,F,] z :| %8

